app-progbat.svg

<svg width="24" height="24" viewBox="0 0 24 24" fill="none" xmlns="http://www.w3.org/2000/svg">
<path d="M11.9951 18.4456V22.3531C11.7236 22.3531 11.457 22.3095 11.1952 22.2368C10.9867 22.1786 10.7928 22.0913 10.6037 21.9847L3.65638 17.9753C3.54488 17.9123 3.54488 17.7426 3.65638 17.6796L6.56039 16.0021C6.61372 15.973 6.6719 15.973 6.72523 16.0021L10.0801 17.9365C10.434 18.145 10.8122 18.2856 11.1952 18.3632C11.4618 18.4165 11.7285 18.4456 11.9951 18.4456Z" fill="currentColor"/>
<path d="M20.3581 17.9608L13.4011 21.975C13.212 22.0865 13.0132 22.1738 12.7999 22.2368C12.5381 22.3192 12.2763 22.3532 12 22.3532H11.9951V18.4456C12.2666 18.4456 12.5333 18.4214 12.7999 18.3632C13.1877 18.2808 13.5756 18.1402 13.9295 17.9317L17.2795 15.9925C17.3329 15.9634 17.3959 15.9634 17.4444 15.9925L20.3532 17.6651C20.4696 17.7329 20.4696 17.8978 20.3581 17.9608Z" fill="currentColor"/>
<path d="M17.6528 8.67668L21.0368 6.7229C21.1725 6.96046 21.2695 7.20771 21.3325 7.47436C21.3859 7.68282 21.4053 7.89614 21.4101 8.1143L21.415 16.1379C21.415 16.2688 21.2695 16.3512 21.158 16.2833L18.254 14.6108C18.2007 14.5817 18.1716 14.5283 18.1716 14.4653L18.1667 10.5917C18.1667 10.1796 18.1037 9.78205 17.9777 9.41359C17.8904 9.1518 17.7837 8.90454 17.6528 8.67668Z" fill="currentColor"/>
<path d="M13.052 1.67601L20.0042 5.69508C20.1981 5.80174 20.3727 5.93264 20.5326 6.08778C20.7363 6.27201 20.8962 6.48532 21.032 6.71803L21.0368 6.72288L17.6529 8.67666C17.5171 8.4391 17.362 8.22094 17.1778 8.02217C16.9111 7.72643 16.596 7.46464 16.2372 7.26102L12.8872 5.32663C12.8339 5.29754 12.8048 5.23936 12.8048 5.18119L12.7999 1.8263C12.7951 1.69541 12.9357 1.61299 13.052 1.67601Z" fill="currentColor"/>
<path d="M11.1952 1.81661V5.18119C11.1952 5.23937 11.1612 5.29755 11.1128 5.32664L7.76273 7.26102C7.40397 7.46949 7.08884 7.72644 6.82704 8.02218C6.64766 8.22095 6.48768 8.43911 6.35193 8.67182C6.22103 8.90938 6.10953 9.15178 6.02711 9.40873C5.90591 9.78688 5.83803 10.1844 5.83803 10.5917V14.4604C5.83803 14.5186 5.8041 14.5768 5.75561 14.6059L2.84676 16.2833C2.73525 16.3464 2.59466 16.2688 2.58981 16.1379L2.58496 8.10944C2.58496 7.89128 2.6092 7.67796 2.65768 7.47434C2.72071 7.2077 2.81767 6.95075 2.95342 6.71804C3.08916 6.48048 3.25885 6.26717 3.45762 6.08294C3.61761 5.93265 3.79214 5.80175 3.98121 5.69024L10.9334 1.67117C11.0546 1.6033 11.1952 1.68572 11.1952 1.81661Z" fill="currentColor"/>
<path d="M15.5634 8.67181C15.6555 8.74453 15.641 8.88998 15.5392 8.94815L12.8 10.5335L12.1601 10.9019C12.0583 10.9601 11.9274 10.9601 11.8255 10.9019L11.2001 10.5383L8.45127 8.95785C8.34946 8.89967 8.33976 8.75908 8.42703 8.68151C8.54823 8.58455 8.67913 8.49243 8.81488 8.41486L11.1953 7.038L11.8304 6.66955C11.9322 6.61137 12.0631 6.61137 12.1649 6.66955L12.8 7.03316L15.1804 8.40517C15.321 8.48758 15.4471 8.57485 15.5634 8.67181Z" fill="currentColor"/>
<path d="M12.7998 16.4773C12.7998 16.5936 12.9162 16.676 13.0277 16.6324C13.1731 16.5791 13.3137 16.5112 13.4494 16.4336L15.825 15.0568L16.465 14.6883C16.5668 14.6301 16.6346 14.5186 16.6346 14.3974V10.9165C16.6346 10.7614 16.6201 10.6062 16.5959 10.4608C16.5765 10.3444 16.4504 10.2862 16.3486 10.3444L13.6094 11.9297L12.9743 12.2982C12.8725 12.3564 12.8047 12.4679 12.8047 12.5891L12.7998 16.4773Z" fill="currentColor"/>
<path d="M11.0256 12.2982C11.1274 12.3564 11.1953 12.4679 11.1953 12.5891V16.4724C11.1953 16.5888 11.0789 16.6712 10.9674 16.6276C10.8268 16.5743 10.6911 16.5112 10.5553 16.4337L8.17975 15.0616L7.5398 14.6932C7.43799 14.635 7.37012 14.5235 7.37012 14.4023V10.9214C7.37012 10.7711 7.37981 10.6208 7.40405 10.4753C7.42345 10.359 7.5495 10.296 7.65131 10.3541L10.3856 11.9298L11.0256 12.2982Z" fill="currentColor"/>
<path d="M11.0256 12.2982C11.1274 12.3564 11.1953 12.4679 11.1953 12.5891V16.4724C11.1953 16.5888 11.0789 16.6712 10.9674 16.6276C10.8268 16.5743 10.6911 16.5112 10.5553 16.4337L8.17975 15.0616L7.5398 14.6932C7.43799 14.635 7.37012 14.5235 7.37012 14.4023V10.9214C7.37012 10.7711 7.37981 10.6208 7.40405 10.4753C7.42345 10.359 7.5495 10.296 7.65131 10.3541L10.3856 11.9298L11.0256 12.2982Z" fill="currentColor"/>
</svg>

<svg xmlns="http://www.w3.org/2000/svg" width="24" height="24" fill="currentColor" viewBox="0 0 24 24">
  <path d="M11.995 18.446v3.907a2.98 2.98 0 0 1-.8-.116 2.644 2.644 0 0 1-.591-.252l-6.948-4.01a.173.173 0 0 1 0-.295l2.904-1.678a.167.167 0 0 1 .165 0l3.355 1.935c.354.208.732.349 1.115.426.267.054.534.083.8.083Zm8.363-.486-6.957 4.015a2.639 2.639 0 0 1-.601.262 2.62 2.62 0 0 1-.8.116h-.005v-3.907c.272 0 .538-.025.805-.083a3.779 3.779 0 0 0 1.13-.431l3.35-1.94a.167.167 0 0 1 .164 0l2.91 1.673c.116.068.116.233.004.296Zm-2.705-9.283 3.384-1.954a2.838 2.838 0 0 1 .373 1.392l.005 8.023a.17.17 0 0 1-.257.146l-2.904-1.673a.16.16 0 0 1-.082-.145l-.005-3.874c0-.412-.063-.81-.19-1.178a4.044 4.044 0 0 0-.324-.737Zm-4.601-7.001 6.952 4.02c.194.106.369.237.529.392.203.184.363.397.499.63l.005.005-3.384 1.954a3.531 3.531 0 0 0-.475-.655 3.791 3.791 0 0 0-.94-.76l-3.35-1.935a.165.165 0 0 1-.083-.146L12.8 1.826c-.005-.13.136-.213.252-.15Zm-1.857.141V5.18a.176.176 0 0 1-.082.146L7.763 7.26a3.918 3.918 0 0 0-1.41 1.41 3.872 3.872 0 0 0-.514 1.92v3.87a.175.175 0 0 1-.083.145l-2.91 1.678a.173.173 0 0 1-.256-.146L2.585 8.11c0-.219.024-.432.073-.636a2.76 2.76 0 0 1 .295-.756c.136-.237.306-.45.505-.635.16-.15.334-.281.523-.393l6.952-4.019c.122-.068.262.015.262.146Z"/>
  <path d="M15.563 8.672a.168.168 0 0 1-.024.276L12.8 10.533l-.64.369a.342.342 0 0 1-.335 0l-.625-.364-2.749-1.58a.17.17 0 0 1-.024-.276c.121-.097.252-.19.388-.267l2.38-1.377.635-.368a.342.342 0 0 1 .335 0l.635.363 2.38 1.372c.141.083.267.17.383.267ZM12.8 16.477c0 .117.116.2.228.156.145-.054.286-.122.421-.2l2.376-1.376.64-.369a.338.338 0 0 0 .17-.29v-3.481a2.8 2.8 0 0 0-.04-.456.165.165 0 0 0-.246-.116l-2.74 1.585-.635.368a.338.338 0 0 0-.17.291l-.004 3.888Zm-1.774-4.179c.101.059.17.17.17.291v3.884a.167.167 0 0 1-.229.155 2.892 2.892 0 0 1-.412-.194L8.18 15.062l-.64-.369a.338.338 0 0 1-.17-.29V10.92c0-.15.01-.3.034-.445a.167.167 0 0 1 .247-.122l2.735 1.576.64.368Z"/>
  <path d="M11.026 12.298c.101.059.17.17.17.291v3.884a.167.167 0 0 1-.229.155 2.892 2.892 0 0 1-.412-.194L8.18 15.062l-.64-.369a.338.338 0 0 1-.17-.29V10.92c0-.15.01-.3.034-.445a.167.167 0 0 1 .247-.122l2.735 1.576.64.368Z"/>
</svg>
